modules/hawcons-stroke/icons/icon-63-file-iso.svg

<?xml version="1.0" encoding="UTF-8" standalone="no"?>
<svg width="32px" height="32px" viewBox="0 0 32 32" version="1.1" xmlns="http://www.w3.org/2000/svg" xmlns:xlink="http://www.w3.org/1999/xlink" xmlns:sketch="http://www.bohemiancoding.com/sketch/ns">
    <!-- Generator: Sketch 3.0.3 (7891) - http://www.bohemiancoding.com/sketch -->
    <title>icon 63 file iso</title>
    <desc>Created with Sketch.</desc>
    <defs></defs>
    <g id="Page-1" stroke="none" stroke-width="1" fill="none" fill-rule="evenodd" sketch:type="MSPage">
        <g id="icon-63-file-iso" sketch:type="MSArtboardGroup" fill="#929292">
            <path d="M8.00684834,10 C6.34621185,10 5,11.3422643 5,12.9987856 L5,20.0012144 C5,21.6573979 6.33599155,23 8.00684834,23 L24.9931517,23 C26.6537881,23 28,21.6577357 28,20.0012144 L28,12.9987856 C28,11.3426021 26.6640085,10 24.9931517,10 L8.00684834,10 L8.00684834,10 Z M7.99456145,11 C6.89299558,11 6,11.9001762 6,12.992017 L6,20.007983 C6,21.1081436 6.90234375,22 7.99456145,22 L25.0054385,22 C26.1070044,22 27,21.0998238 27,20.007983 L27,12.992017 C27,11.8918564 26.0976562,11 25.0054385,11 L7.99456145,11 L7.99456145,11 Z M10,14 L10,19 L9,19 L9,20 L12,20 L12,19 L11,19 L11,14 L12,14 L12,13 L9,13 L9,14 L10,14 L10,14 Z M15.0048815,13 C13.897616,13 13,13.8877296 13,15 C13,16.1045695 13.8877296,17 15,17 L15.9906311,17 C16.5480902,17 17,17.4438648 17,18 C17,18.5522847 16.5573397,19 16.0010434,19 L14.9989566,19 C14.4472481,19 14,18.543716 14,18.0044713 L14,17.9931641 L13,17.9931641 L13,17.998921 C13,19.1040864 13.8938998,20 15.0048815,20 L15.9951185,20 C17.102384,20 18,19.1122704 18,18 C18,16.8954305 17.1122704,16 16,16 L15.0093689,16 C14.4519098,16 14,15.5561352 14,15 C14,14.4477153 14.4426603,14 14.9989566,14 L16.0010434,14 C16.5527519,14 17,14.453186 17,15 L18,15 C18,13.8954305 17.1061002,13 15.9951185,13 L15.0048815,13 L15.0048815,13 Z M21.0048815,13 C19.897616,13 19,13.8865548 19,15.0059191 L19,17.9940809 C19,19.1019194 19.8938998,20 21.0048815,20 L21.9951185,20 C23.102384,20 24,19.1134452 24,17.9940809 L24,15.0059191 C24,13.8980806 23.1061002,13 21.9951185,13 L21.0048815,13 L21.0048815,13 Z M20.9989566,14 C20.4472481,14 20,14.4437166 20,14.9998075 L20,18.0001925 C20,18.5523709 20.4426603,19 20.9989566,19 L22.0010434,19 C22.5527519,19 23,18.5562834 23,18.0001925 L23,14.9998075 C23,14.4476291 22.5573397,14 22.0010434,14 L20.9989566,14 L20.9989566,14 Z" id="file-iso" sketch:type="MSShapeGroup"></path>
        </g>
    </g>
</svg>

<svg width="32" height="32" xmlns="http://www.w3.org/2000/svg"><path d="M8.007 10A3.003 3.003 0 0 0 5 12.999V20A2.996 2.996 0 0 0 8.007 23h16.986A3.003 3.003 0 0 0 28 20.001V13A2.996 2.996 0 0 0 24.993 10H8.007zm-.012 1C6.893 11 6 11.9 6 12.992v7.016A2 2 0 0 0 7.995 22h17.01C26.107 22 27 21.1 27 20.008v-7.016A2 2 0 0 0 25.005 11H7.995zM10 14v5H9v1h3v-1h-1v-5h1v-1H9v1h1zm5.005-1A1.998 1.998 0 0 0 13 15c0 1.105.888 2 2 2h.99c.558 0 1.01.444 1.01 1 0 .552-.443 1-.999 1h-1.002c-.552 0-.999-.456-.999-.996v-.01h-1v.005A2 2 0 0 0 15.005 20h.99A1.998 1.998 0 0 0 18 18c0-1.105-.888-2-2-2h-.99c-.558 0-1.01-.444-1.01-1 0-.552.443-1 .999-1h1.002c.552 0 .999.453.999 1h1a2 2 0 0 0-2.005-2h-.99zm6 0A1.998 1.998 0 0 0 19 15.006v2.988c0 1.108.894 2.006 2.005 2.006h.99A1.998 1.998 0 0 0 24 17.994v-2.988A2.003 2.003 0 0 0 21.995 13h-.99zm-.006 1A.997.997 0 0 0 20 15v3c0 .552.443 1 .999 1h1.002A.997.997 0 0 0 23 18v-3c0-.552-.443-1-.999-1h-1.002z" fill="#929292" fill-rule="evenodd"/></svg>
